img/arrow.svg

<svg fill="none" height="13" viewBox="0 0 16 13" width="16" xmlns="http://www.w3.org/2000/svg"><path d="m15.1448 6.88088c.3306-.33063.3306-.86668 0-1.19731l-5.3879-5.387903c-.33063-.3306282-.86669-.3306282-1.19732 0-.33063.330629-.33063.866683 0 1.197313l4.78922 4.78925-4.78922 4.78927c-.33063.3306-.33063.8667 0 1.1973s.86669.3306 1.19732 0zm-14.1447-1.44528c-.467575 0-.846622.37905-.846622.84663s.379047.84662.846622.84662zm13.546 0h-13.546v1.69325h13.546z" fill="#0080ff"/></svg>

<svg width="16" height="13" viewBox="0 0 16 13" fill="none" xmlns="http://www.w3.org/2000/svg">
<path d="M15.1448 6.88088C15.4754 6.55025 15.4754 6.0142 15.1448 5.68357L9.7569 0.295667C9.42627 -0.0349612 8.89021 -0.0349612 8.55958 0.295667C8.22895 0.626296 8.22895 1.16235 8.55958 1.49298L13.3488 6.28223L8.55958 11.0715C8.22895 11.4021 8.22895 11.9382 8.55958 12.2688C8.89021 12.5994 9.42627 12.5994 9.7569 12.2688L15.1448 6.88088ZM1.0001 5.4356C0.532525 5.4356 0.153478 5.81465 0.153478 6.28223C0.153478 6.74981 0.532525 7.12885 1.0001 7.12885V5.4356ZM14.5461 5.4356L1.0001 5.4356V7.12885L14.5461 7.12885V5.4356Z" fill="#0080FF"/>
</svg>
